X:107
T:Waltz of the East York Militia. CJF.107
T:Bugle Waltz No.4. CJF.107
T:East York Militia Waltz. CJF.107
R:Waltz
S:C.J.Fox MS, 1829/33, Beverley,E.Yorks.
N:See note on Bugle Waltz No. 1. CJF.056. I believe this is
N:the fouth waltz in that set. – PJH
B:Kidson Coll.Mitchell Lib.M1805
O:England
A:East Yorkshire
Z:vmp.P J Headford 2000 & 2008
M:3/8
L:1/16
Q:1/8=120
K:D
A2|d2(fe)d2|d2a2f2|e2(edeg)|f2d2A2|\
d2(fe)d2|d2a2f2|e2(edef)|d4:|!
|:d’c’|b2a2 d’c’|b2a2 d’c’|(bababc’)|d’2a2 d’c’|\
b2a2 d’c’|b2a2 d’c’|.b.a.g.f.e.d|a2agfe|!
d2(fe)d2|d2a2f2|e2(edeg)|f2d2A2|\
d2(fe)d2|d2a2f2|e2edef|d4:|!
|:(af)|(df) A2 (af)|(df) A2 (dc)|BABABc|d2A2 (af)|\
(df) A2 (af)|(df) A2 (dB)|(ce) cA B^G|A” D.C.”bagfe|]

